src/assets/outline/Cube3d.svg

<svg width="24" height="24" viewBox="0 0 24 24"  xmlns="http://www.w3.org/2000/svg">
<path d="M12 12.2496C11.56 12.2496 11.12 12.1396 10.72 11.9296L4.21 8.41961C3.62 8.09961 3.25 7.46961 3.25 6.76961C3.25 6.06961 3.62 5.43961 4.21 5.11961L10.72 1.60961C11.52 1.17961 12.48 1.17961 13.27 1.60961L19.78 5.11961C20.37 5.43961 20.74 6.06961 20.74 6.76961C20.74 7.46961 20.37 8.09961 19.78 8.41961L13.27 11.9296C12.88 12.1496 12.44 12.2496 12 12.2496ZM12 2.77961C11.81 2.77961 11.61 2.82961 11.43 2.92961L4.93 6.42961C4.76 6.51961 4.75 6.70961 4.75 6.76961C4.75 6.82961 4.76 7.01961 4.93 7.09961L11.44 10.6096C11.8 10.7996 12.21 10.7996 12.57 10.6096L19.08 7.09961C19.24 7.00961 19.26 6.81961 19.26 6.76961C19.26 6.70961 19.25 6.51961 19.08 6.43961L12.57 2.92961C12.39 2.82961 12.19 2.77961 12 2.77961Z" />
<path d="M9.78 22.7198C9.5 22.7198 9.21 22.6498 8.95 22.5198L2.89 19.4998C1.88 18.9898 1.25 17.9698 1.25 16.8398V11.1198C1.25 10.4698 1.58 9.87977 2.13 9.53977C2.69 9.19977 3.36 9.16977 3.94 9.45977L10 12.4798C11.01 12.9898 11.64 13.9998 11.64 15.1398V20.8598C11.64 21.5098 11.31 22.0998 10.76 22.4398C10.46 22.6298 10.12 22.7198 9.78 22.7198ZM3.11 10.7598C3.03 10.7598 2.96 10.7898 2.92 10.8098C2.86 10.8498 2.75 10.9398 2.75 11.1198V16.8398C2.75 17.3998 3.06 17.9098 3.56 18.1598L9.61 21.1898C9.77 21.2698 9.9 21.2098 9.96 21.1798C10.02 21.1398 10.13 21.0498 10.13 20.8698V15.1498C10.13 14.5898 9.82 14.0798 9.32 13.8298L3.27 10.7998C3.21 10.7698 3.16 10.7598 3.11 10.7598Z" />
<path d="M14.2199 22.72C13.8799 22.72 13.5399 22.63 13.2399 22.44C12.6899 22.1 12.3599 21.51 12.3599 20.86V15.14C12.3599 14.01 12.9899 12.99 13.9999 12.48L20.0499 9.45C20.6299 9.16 21.3099 9.19 21.8599 9.53C22.4099 9.87 22.7399 10.46 22.7399 11.11V16.83C22.7399 17.96 22.1099 18.98 21.0999 19.49L15.0499 22.52C14.7899 22.66 14.4999 22.72 14.2199 22.72ZM20.8899 10.76C20.8399 10.76 20.7899 10.77 20.7299 10.8L14.6799 13.83C14.1799 14.08 13.8699 14.58 13.8699 15.15V20.87C13.8699 21.05 13.9799 21.14 14.0399 21.18C14.0999 21.22 14.2299 21.27 14.3899 21.19L20.4399 18.16C20.9399 17.91 21.2499 17.4 21.2499 16.84V11.12C21.2499 10.94 21.1399 10.85 21.0799 10.81C21.0399 10.79 20.9699 10.76 20.8899 10.76Z" />
</svg>

<?xml version="1.0" encoding="UTF-8"?>
<svg width="24" height="24" viewBox="0 0 24 24" xmlns="http://www.w3.org/2000/svg">
 <path d="m12 12.25c-0.44 0-0.88-0.11-1.28-0.32l-6.51-3.51c-0.59-0.32-0.96-0.95-0.96-1.65s0.37-1.33 0.96-1.65l6.51-3.51c0.8-0.43 1.76-0.43 2.55 0l6.51 3.51c0.59 0.32 0.96 0.95 0.96 1.65s-0.37 1.33-0.96 1.65l-6.51 3.51c-0.39 0.22-0.83 0.32-1.27 0.32zm0-9.47c-0.19 0-0.39 0.05-0.57 0.15l-6.5 3.5c-0.17 0.09-0.18 0.28-0.18 0.34s0.01 0.25 0.18 0.33l6.51 3.51c0.36 0.19 0.77 0.19 1.13 0l6.51-3.51c0.16-0.09 0.18-0.28 0.18-0.33 0-0.06-0.01-0.25-0.18-0.33l-6.51-3.51c-0.18-0.1-0.38-0.15-0.57-0.15z"/>
 <path d="m9.78 22.72c-0.28 0-0.57-0.07-0.83-0.2l-6.06-3.02c-1.01-0.51-1.64-1.53-1.64-2.66v-5.72c0-0.65 0.33-1.24 0.88-1.58 0.56-0.34 1.23-0.37 1.81-0.08l6.06 3.02c1.01 0.51 1.64 1.52 1.64 2.66v5.72c0 0.65-0.33 1.24-0.88 1.58-0.3 0.19-0.64 0.28-0.98 0.28zm-6.67-11.96c-0.08 0-0.15 0.03-0.19 0.05-0.06 0.04-0.17 0.13-0.17 0.31v5.72c0 0.56 0.31 1.07 0.81 1.32l6.05 3.03c0.16 0.08 0.29 0.02 0.35-0.01 0.06-0.04 0.17-0.13 0.17-0.31v-5.72c0-0.56-0.31-1.07-0.81-1.32l-6.05-3.03c-0.06-0.03-0.11-0.04-0.16-0.04z"/>
 <path d="m14.22 22.72c-0.34 0-0.68-0.09-0.98-0.28-0.55-0.34-0.88-0.93-0.88-1.58v-5.72c0-1.13 0.63-2.15 1.64-2.66l6.05-3.03c0.58-0.29 1.26-0.26 1.81 0.08s0.88 0.93 0.88 1.58v5.72c0 1.13-0.63 2.15-1.64 2.66l-6.05 3.03c-0.26 0.14-0.55 0.2-0.83 0.2zm6.67-11.96c-0.05 0-0.1 0.01-0.16 0.04l-6.05 3.03c-0.5 0.25-0.81 0.75-0.81 1.32v5.72c0 0.18 0.11 0.27 0.17 0.31s0.19 0.09 0.35 0.01l6.05-3.03c0.5-0.25 0.81-0.76 0.81-1.32v-5.72c0-0.18-0.11-0.27-0.17-0.31-0.04-0.02-0.11-0.05-0.19-0.05z"/>
</svg>
